!!!!SEGMENT: pl-gd--ee-2628--005-011_stabile-annibale--il-primo-libro-de-madrigali-a-cinque-voci-qual-per-ombrose.krn
!!!cenid: 15xx:1056
!!!COM: Stabile, Annibale
!!!COM-rismID: pe30009662
!!!CDT: ~1535-1595/04
!!!CNT: Italian
!!!GTL: Il primo libro de madrigali a cinque voci
!!!OTL: Qual per ombrose
!!!OMV: 011
!!!PDT: 1586
!!!AGN:
!!!SMS-siglum: PL-GD
!!!SMS-shelfmark: Ee 2628
!!!SMS-variant:
!!!SMS-altvar:
!!!SMS-shelfwork: 005-011 G
!!!NIFC-rismSourceID: 990060531
!!!NIFC-islandoraID: pl-gd:66139
!!!URL-pdf-islandora: https://repozytorium.nifc.pl/islandora/object/pl-gd%3A66139/datastream/PDF/view
!!!URL-scan: https://polish.musicsources.pl/pl/lokalizacje/galeria/klocki-introligatorskie/673 @EN{Scan on Polish Music Sources Website} @PL{Skany w portalu Dziedzictwo Muzyki Polskiej w otwartym dostępie}
!!!ONB-nifc: UWAGA: Canto: s. 78-89, Tenore: s. 233-245, Basso: s. 390-401, Quinto: s. 712-723. Dla głosu Alto proszę skorzystać z https://pbc.gda.pl/dlibra/doccontent?id=79410, str. 25-48. Uwaga: utwory podzielone wg spisu treści dostępnych na końcu ksiąg – proszę sprawdzać sąsiednie tytuły. Głos Quinto proszę umieszczać wg ambitusu (może się różnić w zależności od utworu).
!!!AIN: 1 alto 1 bass 1 soprn 1 tenor 1 vox
!!!key: a
**kern	**text	**kern	**text	**kern	**text	**kern	**text	**kern	**text
*part5	*part5	*part4	*part4	*part3	*part3	*part2	*part2	*part1	*part1
*staff5	*staff5	*staff4	*staff4	*staff3	*staff3	*staff2	*staff2	*staff1	*staff1
*I"BASSO	*	*I"TENORE	*	*I"ALTO	*	*I"CANTO	*	*I"QVINTO	*
*I'B	*	*I'T	*	*I'A	*	*I'S	*	*I'V	*
*ICvox	*	*ICvox	*	*ICvox	*	*ICvox	*	*ICvox	*
*Ibass	*	*Itenor	*	*Ialto	*	*Isoprn	*	*Ivox	*
*clefF3	*	*clefC3	*	*clefC2	*	*clefG2	*	*clefC3	*
*k[]	*	*k[]	*	*k[]	*	*k[]	*	*k[]	*
*a:	*	*a:	*	*a:	*	*a:	*	*a:	*
*M2/1	*	*M2/1	*	*M2/1	*	*M2/1	*	*M2/1	*
*met(C)	*	*met(C)	*	*met(C)	*	*met(C)	*	*met(C)	*
=1-	=1-	=1-	=1-	=1-	=1-	=1-	=1-	=1-	=1-
00r	.	0r	.	2d/	QVal	1r	.	00r	.
.	.	.	.	4d/	per	.	.	.	.
.	.	.	.	4e/	om-	.	.	.	.
.	.	.	.	4f\	-bro-	2a/	QVal	.	.
.	.	.	.	4d/	-s`e	.	.	.	.
.	.	.	.	4f\	ver-	4a/	per	.	.
.	.	.	.	4g\	-de-	4b/	om-	.	.
=2-	=2-	=2-	=2-	=2-	=2-	=2-	=2-	=2-	=2-
.	.	2A/	QVal	4.a\	-gian-	4cc\	-bro-	.	.
.	.	.	.	.	.	4a/	-s`e	.	.
.	.	.	.	8g\	to	.	.	.	.
.	.	4A/	per	2f\	val-	4cc\	ver-	.	.
.	.	4B/	om-	.	.	4dd\	-de-	.	.
.	.	4c/	-bro-	4e/	-li	2.ee\	-gian-	.	.
.	.	4A/	-s`e	2cc\	-e	.	.	.	.
.	.	4c/	ver-	.	.	.	.	.	.
.	.	4d\	-de-	8b\	.	8dd\	.	.	.
.	.	.	.	8a\	.	8cc\	.	.	.
=3-	=3-	=3-	=3-	=3-	=3-	=3-	=3-	=3-	=3-
00r	.	4e\	-gian-	4g#X\	.	4b/	.	1r	.
.	.	4f\	-ti	2a\	ver-	4a/	-ti	.	.
.	.	2e\	val-	.	.	2b/	val-	.	.
.	.	.	.	4g#X\	-deg-	.	.	.	.
*	*	*	*	*custos:a	*	*	*	*	*
!	!	!	!	!LO:LB:g=original	!	!	!	!	!
.	.	4e\	-li	4a\	-gian-	4cc\	-li	2A/	QVal
.	.	2a\	Qual	2cc\	-ti	4ee\	Qual	.	.
*	*	*	*	*	*	*custos:ff	*	*	*
!	!	!	!	!	!	!LO:LB:g=original	!	!	!
.	.	.	.	.	.	4ff\	per	4A/	per
.	.	4d\	per	8b\	.	4gg\	om-	4B/	om-
.	.	.	.	8a\	.	.	.	.	.
=4-	=4-	=4-	=4-	=4-	=4-	=4-	=4-	=4-	=4-
.	.	4e\	om-	4gny\	.	4.ee\	-bro-	4c/	-bro-
.	.	2a\	-bro-	4.cc\	val-	.	.	4A/	-s`e
.	.	.	.	.	.	8ee\	-s`e	.	.
.	.	.	.	.	.	4ee\	ver-	4c/	ver-
.	.	.	.	8b\	.	.	.	.	.
.	.	4f\	-s`e	8a\	.	4ff\	-deg-	4d\	-deg-
.	.	.	.	8b\	.	.	.	.	.
*	*	*custos:g	*	*	*	*	*	*	*
!	!	!LO:LB:g=original	!	!	!	!	!	!	!
.	.	4g\	ver-	4cc\	.	4ee\	-gian-	4e\	-gian-
.	.	4a\	-deg-	8b\	.	4dd\	-ti	4f\	-ti
.	.	.	.	8a\	.	.	.	.	.
.	.	4g#X\	-gian-	2b\	.	2ee\	val-	2e\	val-
.	.	4g#\	-ti	.	.	.	.	.	.
=5-	=5-	=5-	=5-	=5-	=5-	=5-	=5-	=5-	=5-
2D/	QVal	8a\	val-	4a\	-li	1dd	-li	2A/	-li
.	.	8gny\	.	.	.	.	.	.	.
.	.	8f\	.	4a\	Qual	.	.	.	.
.	.	8e\	.	.	.	.	.	.	.
4D/	per	4f\	.	4a\	per	.	.	2d\	e
4E/	om-	4g\	.	4g\	om-	.	.	.	.
4F/	-bro-	2.a\	.	4.f\	-bros`-	1r	.	2.d\	ver-
4D/	-s`e	.	.	.	.	.	.	.	.
.	.	.	.	8f\	-et	.	.	.	.
4F/	ver-	.	.	4f\	ver-	.	.	.	.
4G\	-de-	8g\	.	4b\	-de-	.	.	4d\	-deg-
.	.	8f\	.	.	.	.	.	.	.
*	*	*	*	*	*	*	*	*custos:c#	*
!	!	!	!	!	!	!	!	!LO:LB:g=original	!
=6-	=6-	=6-	=6-	=6-	=6-	=6-	=6-	=6-	=6-
4A\	-gian-	4e\	.	4a\	-gian-	2r	.	4c#X/	-gian-
4B\	-ti	4d\	.	4g\	-ti	.	.	4d\	-ti
2A\	Val-	2e\	.	2a\	val-	2ee\	Al	2c#X/	val-
*custos:D	*	*	*	*custos:a	*	*	*	*	*
!LO:LB:g=original	!	!	!	!LO:LB:g=original	!	!	!	!	!
4D/	-li	2d\	-li	1a	-li	2ff\	piu	2d\	-li
4d\	Al	.	.	.	.	.	.	.	.
4d\	piu	4A/	Al	.	.	2ee\	bel	4r	.
4c#X\	bel	2a\	piu	.	.	.	.	4e\	Al
=7-	=7-	=7-	=7-	=7-	=7-	=7-	=7-	=7-	=7-
2d\	tem-	.	.	2r	.	1dd	tem-	2.f\	piu
.	.	4a\	bel	.	.	.	.	.	.
2D/	-po	2a\	tem-	2d/	Al	.	.	.	.
.	.	.	.	.	.	.	.	4d\	bel
2r	.	2A/	-po	1.a	piu	4cc\	-po	1e	tem-
*	*ij	*	*	*	*	*	*ij	*	*
.	.	.	.	.	.	2ee\	Al	.	.
2A\	Al	4r	.	.	.	.	.	.	.
.	.	4.a\	Al	.	.	2cc\	piu	.	.
=8-	=8-	=8-	=8-	=8-	=8-	=8-	=8-	=8-	=8-
2F\	piu	.	.	.	.	.	.	2A/	-po
.	.	8g\	.	.	.	.	.	.	.
.	.	8f\	.	.	.	2dd\	bel	.	.
.	.	8e\	.	.	.	.	.	.	.
*	*	*custos:d	*	*	*	*	*	*	*
!	!	!LO:LB:g=original	!	!	!	!	!	!	!
2G\	bel	4d\	.	2b-X\	bel	.	.	4r	.
*	*	*	*	*	*	*custos:ee	*	*	*ij
!	!	!	!	!	!	!LO:LB:g=original	!	!	!
.	.	2g\	piu	.	.	4.ee\	tem-	4e\	Al
1A	tem-	.	.	1a	tem-	.	.	4c#X\	piu
.	.	.	.	.	.	8dd\	.	.	.
.	.	4f\	bel	.	.	2dd\	.	4d\	bel
.	.	2e\	tem-	.	.	.	.	4e\	tem-
.	.	.	.	.	.	4cc#X\	.	4A/	-po
*	*	*	*	*	*	*	*	*	*Xij
=9-	=9-	=9-	=9-	=9-	=9-	=9-	=9-	=9-	=9-
1D	-po	1d	-po	2f\	-po	2dd\	-po	2r	.
.	.	.	.	2a\	V-	4r	.	2f\	V-
*	*Xij	*	*	*	*	*	*Xij	*	*
.	.	.	.	.	.	4dd\	v-	.	.
0r	.	1r	.	2a\	-dir	2.ccny\	-dir	2f\	-dir
.	.	.	.	4g\	can-	.	.	4e\	can-
.	.	.	.	2cc\	-tar	4a/	can-	2f\	-tar
=10-	=10-	=10-	=10-	=10-	=10-	=10-	=10-	=10-	=10-
.	.	1r	.	.	.	2dd\	-tar	.	.
.	.	.	.	2bny\	gl`au-	.	.	4g\	gl`au-
*	*	*	*	*	*	*	*	*custos:a	*
!	!	!	!	!	!	!	!	!LO:LB:g=original	!
.	.	.	.	.	.	2cc\	gl`au-	2a\	-gel-
.	.	.	.	2a\	-gel-	.	.	.	.
*custos:E	*	*	*	*	*	*	*	*lig	*
!LO:LB:g=original	!	!	!	!	!	!	!	!	!
2r	.	2r	.	.	.	1b	-gel-	1e	-li
.	.	.	.	8g#X\	.	.	.	.	.
.	.	.	.	8f#X\	.	.	.	.	.
2E/	Qual	2e\	Qual	2g#X\	.	.	.	.	.
=11-	=11-	=11-	=11-	=11-	=11-	=11-	=11-	=11-	=11-
4.F/	dol-	4.c/	dol-	2a\	-li	2a/	-li	1A	.
8E/	-ce	8c/	-ce	.	.	.	.	.	.
4D/	mor-	4d\	mor-	4r	.	4r	.	.	.
4C#X/	-mo-	4e\	-mo-	4a\	-Qual	4ee\	Qual	.	.
*	*	*	*	*	*	*	*	*Xlig	*
2D/	-rar	2d\	-rar	4.a\	dol-	4.ff\	dol-	2r	.
.	.	.	.	8gny\	-ce	8ee\	-ce	.	.
*	*ij	*	*ij	*custos:f	*	*	*	*	*
!	!	!	!	!LO:LB:g=original	!	!	!	!	!
4r	.	2a\	Qual	4fny\	mor-	4dd\	mor-	4r	.
4A\	Qual	.	.	4e\	-mo-	4cc#X\	-mo-	4e\	Qual
*	*	*	*	*	*	*custos:dd	*	*	*
!	!	!	!	!	!	!LO:LB:g=original	!	!	!
=12-	=12-	=12-	=12-	=12-	=12-	=12-	=12-	=12-	=12-
4.D/	dol-	4.a\	dol-	2d/	-rar	2dd\	-rar	4.f\	dol-
8E/	-ce	8g\	-ce	.	.	.	.	8e\	-ce
4F/	mor-	4f\	mor-	2a\	Per	2r	.	4d\	mor-
4A\	-mo-	4e\	-mo-	.	.	.	.	4c#X/	-mo-
2D/	-rar	4f#X\	-rar	4a\	riu-	2r	.	2d\	-rar
*	*Xij	*	*Xij	*	*	*	*	*	*
.	.	4f#\	per	4a\	-i	.	.	.	.
*	*	*custos:g	*	*	*	*	*	*	*
!	!	!LO:LB:g=original	!	!	!	!	!	!	!
2G\	per	4.g\	ri-	2b\	ſnel-	2dd\	Per	2d\	per
.	.	8f#\	.	.	.	.	.	.	.
=13-	=13-	=13-	=13-	=13-	=13-	=13-	=13-	=13-	=13-
4Cny/	riu-	8e\	.	4cc\	-li	4ee\	riu-	8g\	ri-
.	.	8d\	.	.	.	.	.	8f\	.
*	*	*	*	*	*ij	*	*	*	*
4E/	-i	8c\	.	4g\	per	4gg\	-i	8e\	.
.	.	8B/	.	.	.	.	.	8d\	.
2F/	ſnel-	8A/	.	4a\	riu-	2ff\	ſnel-	4cny/	.
.	.	8B/	.	.	.	.	.	.	.
.	.	8c\	.	4a\	-i	.	.	4A/	-ui
.	.	8d\	.	.	.	.	.	.	.
2C/	-li	8e\	.	4g\	ſnel-	2ee\	-li	4.c/	ſnel-
.	.	8fny\	.	.	.	.	.	.	.
.	.	2g\	.	4e/	-li	.	.	.	.
.	.	.	.	.	.	.	.	8d\	.
*	*	*	*	*	*Xij	*	*	*custos:e	*
!	!	!	!	!	!	!	!	!LO:LB:g=original	!
2C/	Di	.	.	2cc\	Di	2ee\	Di	8e\	.
.	.	.	.	.	.	.	.	8f\	.
.	.	4c/	-ui	.	.	.	.	2g\	.
*custos:G	*	*	*	*	*	*	*	*	*
!LO:LB:g=original	!	!	!	!	!	!	!	!	!
=14-	=14-	=14-	=14-	=14-	=14-	=14-	=14-	=14-	=14-
4G\	chia-	2d\	ſnel-	4b-X\	chia-	4dd\	chia-	.	.
4B-X\	-rie	.	.	4g\	-rie	4dd\	-rie	4d\	-li
2A\	freſ-	4e\	-li	2.a\	freſ-	2cc#X\	freſ-	4r	.
.	.	4e\	Di	.	.	.	.	4e\	Di
2D/	-chie	4d\	chia-	.	.	2dd\	-chie	4f\	chia-
.	.	4d\	-rie	4a\	-chie	.	.	4f\	-re
2.A\	li-	4.c/	freſ-	4.a\	li-	2.ee\	liq-	2.e\	freſ-
.	.	8B/	-chie	8bny\	-qui-	.	.	.	.
=15-	=15-	=15-	=15-	=15-	=15-	=15-	=15-	=15-	=15-
.	.	4A/	li-	4cc\	-di	.	.	.	.
4G#X\	-qui-	4B/	-qui-	4b\	cri-	4ee\	-ui-	4e\	-chie
*	*	*custos:c	*	*custos:a	*	*	*	*	*
!	!	!LO:LB:g=original	!	!LO:LB:g=original	!	!	!	!	!
4A\	-di	4c/	-di	4a\	ſtol-	1ee	-di	4.e\	li-
4E/	criſ-	4B/	criſ-	4g#X\	-li	.	.	.	.
.	.	.	.	.	.	.	.	8e\	-qui-
1F	-tol-	2A/	-tol-	2r	.	.	.	2c/	-di
.	.	2A/	-li	2a\	Qual	2dd\	criſ-	2d\	criſ-
=16-	=16-	=16-	=16-	=16-	=16-	=16-	=16-	=16-	=16-
1E	-li	1r	.	2a\	ve	2ccny\	-tol-	2e\	-tol-
.	.	.	.	2g#X\	der	4b/	-li	4e\	-li
.	.	.	.	.	.	4ee\	Qual	4e\	Qual
*	*	*	*	*	*	*custos:ee	*	*	*
!	!	!	!	!	!	!LO:LB:g=original	!	!	!
1r	.	2r	.	2.a\	pra-	2ee\	ve-	2f\	ve-
.	.	2a\	Qual	.	.	2dd\	-der	2f\	-der
.	.	.	.	4b\	.	.	.	.	.
=17-	=17-	=17-	=17-	=17-	=17-	=17-	=17-	=17-	=17-
2r	.	2a\	ve-	2cc\	.	2.ee\	pra-	1e	pra-
2E/	Qual	2g#X\	-der	2b\	-to in	.	.	.	.
.	.	.	.	.	.	4ee\	-to in	.	.
2F/	ve-	2.a\	pra-	4a\	fior	2cc\	fior	2A/	-to
.	.	.	.	4A/	ver-	.	.	.	.
*	*	*	*	*	*	*	*	*custos:a	*ij
!	!	!	!	!	!	!	!	!LO:LB:g=original	!
2F/	-der	.	.	4A/	-mig-	2dd\	ver-	2a\	Qual
.	.	4A/	-to in	4A/	-lie	.	.	.	.
=18-	=18-	=18-	=18-	=18-	=18-	=18-	=18-	=18-	=18-
2.E/	pra-	4c/	fior	1e	gial-	2.ee\	-mig-	2a\	ve-
.	.	8B/	.	.	.	.	.	.	.
.	.	8A/	.	.	.	.	.	.	.
.	.	2B/	.	.	.	.	.	2g#X\	-der
4E/	-to in	.	.	.	.	4ee\	-lie	.	.
1A	for	2A/	ver-	1e	-li	4.cc#X\	gial-	2.a\	pra-
.	.	.	.	.	.	8b\	.	.	.
.	.	4.a\	-mi-	.	.	2cc#X\	.	.	.
.	.	.	.	.	.	.	.	4e\	-to
.	.	8gny\	.	.	.	.	.	.	.
*	*	*	*	*	*	*	*	*	*Xij
=19-	=19-	=19-	=19-	=19-	=19-	=19-	=19-	=19-	=19-
2D/	ver-	8f\	.	4r	.	1dd	-li	8a\	in fior
.	.	8e\	.	.	.	.	.	8gny\	.
.	.	8d\	.	4a\	ver-	.	.	8f\	.
.	.	8c\	.	.	.	.	.	8e\	.
*custos:G	*	*custos:B	*	*	*	*	*	*	*
!LO:LB:g=original	!	!LO:LB:g=original	!	!	!	!	!	!	!
2.Gny\	-mi-	4B/	.	8gny\	-mi-	.	.	4d\	.
.	.	.	.	8a\	.	.	.	.	.
.	.	8G/	-glie	8b\	.	.	.	4d\	ver-
.	.	8A/	.	8cc\	.	.	.	.	.
*	*	*	*	*custos:b	*	*	*	*	*
!	!	!	!	!LO:LB:g=original	!	!	!	!	!
.	.	8B/	.	4b\	.	1r	.	4d\	-mig-
.	.	8c/	.	.	.	.	.	.	.
4F/	-glie	2d\	.	4a\	-glie	.	.	4d\	-lie
2E/	gial-	.	.	2g\	gial-	.	.	2e\	gial-
.	.	4c#X/	gial-	.	.	.	.	.	.
=20-	=20-	=20-	=20-	=20-	=20-	=20-	=20-	=20-	=20-
1D	-li	2d\	-li	1f#X	-li	2r	.	1A	-li
.	.	4r	.	.	.	2dd\	Diſ-	.	.
.	.	4d\	ver-	.	.	.	.	.	.
1r	.	8d\	-mi-	4r	.	4ff\	-tin-	0r	.
.	.	8e\	.	.	.	.	.	.	.
.	.	8f\	.	4a\	Diſ-	4ff\	-to al-	.	.
.	.	8g\	.	.	.	.	.	.	.
.	.	4a\	.	4cc\	-tin-	4ee\	-l`om-	.	.
.	.	4a\	-gli e	4cc\	-to al-	4ccny\	-bra	.	.
*	*	*	*	*	*	*custos:dd	*	*	*
!	!	!	!	!	!	!LO:LB:g=original	!	!	!
=21-	=21-	=21-	=21-	=21-	=21-	=21-	=21-	=21-	=21-
0r	.	2g\	gial-	4b\	-l`om-	8dd\	de	.	.
.	.	.	.	.	.	8cc\	.	.	.
.	.	.	.	4g\	-bra	8dd\	.	.	.
.	.	.	.	.	.	8ee\	.	.	.
.	.	2d\	-li	8a\	de	2ff\	.	.	.
.	.	.	.	8g\	.	.	.	.	.
.	.	.	.	8a\	.	.	.	.	.
.	.	.	.	8b\	.	.	.	.	.
.	.	1r	.	4cc\	.	4ee\	ver-	4r	.
.	.	.	.	4.b\	ver	4.dd\	-diar	4d\	Diſ-
.	.	.	.	.	.	.	.	4f\	-tin-
.	.	.	.	8a\	.	8cc\	.	.	.
.	.	.	.	4a\	.	8cc\	.	4f\	-to al-
.	.	.	.	.	.	16b/	.	.	.
.	.	.	.	.	.	16a/	.	.	.
=22-	=22-	=22-	=22-	=22-	=22-	=22-	=22-	=22-	=22-
2r	.	1r	.	4g#X\	diar	4b/	.	4e\	-l`om-
.	.	.	.	2a\	boſ-	4cc\	boſ-	4c/	-bra
*	*	*	*	*	*	*	*	*custos:d	*
!	!	!	!	!	!	!	!	!LO:LB:g=original	!
4r	.	.	.	.	.	2b/	-cel-	4d\	de
4E/	Diſ-	.	.	4g#X\	-cel-	.	.	4e\	ver-
4F/	-tin-	4r	.	2a\	-li	2a/	-li	8A/	-diar
.	.	.	.	.	.	.	.	8B/	.
4F/	-to al-	4A/	Diſ-	.	.	.	.	8c/	.
.	.	.	.	.	.	.	.	8d\	.
4E/	-l`om-	4cny/	-tin-	4r	.	2r	.	8e\	.
.	.	.	.	.	.	.	.	8f\	.
4C/	-bra	4c/	-to al-	4e/	Di-	.	.	8g\	.
.	.	.	.	.	.	.	.	8e\	.
*	*	*	*	*custos:d	*	*	*	*	*
!	!	!	!	!LO:LB:g=original	!	!	!	!	!
=23-	=23-	=23-	=23-	=23-	=23-	=23-	=23-	=23-	=23-
4D/	de	2B/	-l`om-	4d/	-ſtin-	0r	.	4f\	.
4E/	ver-	.	.	4gny\	-to al-	.	.	8e\	.
.	.	.	.	.	.	.	.	8d\	.
*	*	*custos:A	*	*	*	*	*	*	*
!	!	!LO:LB:g=original	!	!	!	!	!	!	!
4F/	-diar	4A/	-bra	4a\	-l`om-	.	.	4c/	.
4D/	boſ-	2a\	de	4fny\	-bra	.	.	4.d\	bo-
1d	-cel-	.	.	4f\	de	.	.	.	.
.	.	.	.	.	.	.	.	8e\	.
.	.	4d\	ver-	4a\	ver-	.	.	8f\	.
.	.	.	.	.	.	.	.	8g\	.
.	.	4f\	-diar	4.a\	-di ar-	.	.	4a\	.
.	.	4f\	boſ-	.	.	.	.	2f\	-ſcel-
.	.	.	.	8b\	-biſ-	.	.	.	.
=24-	=24-	=24-	=24-	=24-	=24-	=24-	=24-	=24-	=24-
1cny	-li	1g	-cel-	1cc	-cel-	1r	.	.	.
.	.	.	.	.	.	.	.	8e\	.
.	.	.	.	.	.	.	.	8d\	.
*	*	*	*	*	*	*	*	*custos:e	*
!	!	!	!	!	!	!	!	!LO:LB:g=original	!
.	.	.	.	.	.	.	.	2e\	.
2r	.	2a\	-li	2cc\	-li	2r	.	2f\	-li
2F/	o	2f\	o	2a\	o	2ff\	o	2c/	o
*custos:B-	*	*	*	*	*	*	*	*	*
!LO:LB:g=original	!	!	!	!	!	!	!	!	!
=25-	=25-	=25-	=25-	=25-	=25-	=25-	=25-	=25-	=25-
4B-X\	mo-	4f\	mo-	4b-X\	mo-	4ff\	mo-	4d\	mo-
4B-\	-uer	4d\	-uer	4b-\	-uer	4ff\	-uer	4d\	-uer
1G	Nin-	4.B-X/	Nin-	1b-	Nin-	1gg	Nin-	1d	Nin-
.	.	8A/	.	.	.	.	.	.	.
.	.	2G/	.	.	.	.	.	.	.
*	*	*	*	*	*	*custos:ff	*	*	*
!	!	!	!	!	!	!LO:LB:g=original	!	!	!
2D/	-fa	2A/	-fa	2a\	-fa	2ff\	-fa	2d\	-fa
=26-	=26-	=26-	=26-	=26-	=26-	=26-	=26-	=26-	=26-
2A\	at-	2c/	at-	2a\	at-	2ee\	at-	2e\	at-
4A\	-ti	4c/	-ti	4a\	-ti	4ee\	-ti	4e\	-ti
4A\	leg-	4A/	leg-	4cc\	leg-	4ee\	leg-	4e\	leg-
4G#X\	-gia-	4Bny/	-gia-	4bny\	-gia-	4ee\	-gia-	4e\	-gia-
4A\	-drie	4c/	-drie	4a\	-drie	4ee\	-drie	4e\	-drie
*	*	*	*	*custos:g#	*	*	*	*	*
!	!	!	!	!LO:LB:g=original	!	!	!	!	!
2E/	bel-	2B/	bel-	2g#X\	bel-	2ee\	bel-	2e\	bel-
=27-	=27-	=27-	=27-	=27-	=27-	=27-	=27-	=27-	=27-
1A	-li	1A	-li	1a	-li	1cc#X	-li	1e	-li
*	*	*custos:A	*	*	*	*	*	*	*
!	!	!LO:LB:g=original	!	!	!	!	!	!	!
=28-	=28-	=28-	=28-	=28-	=28-	=28-	=28-	=28-	=28-
*yyM3/2	*	*yyM3/2	*	*yyM3/2	*	*yyM3/2	*	*yyM3/2	*
*	*	*col	*	*col	*	*col	*	*col	*
00.r	.	2A/	Al	2a\	Al	2ee\	Al	2a\	Al
.	.	2A/	dol-	2cc\	dol-	2ee\	dol-	2a\	dol-
.	.	2e\	-ce	2b\	-ce	2ee\	-ce	2g#X\	-ce
*	*	*	*	*	*	*	*	*Xcol	*
=29-	=29-	=29-	=29-	=29-	=29-	=29-	=29-	=29-	=29-
.	.	1A	ſuon	1cc	ſuon	1ee	ſuon	1.a	ſuon
.	.	2A/	de	2a\	de	2ccny\	de	.	.
=30-	=30-	=30-	=30-	=30-	=30-	=30-	=30-	=30-	=30-
!	!	!	!	!	!	!	!	!LO:N:vis=1	!
.	.	2.e\	gl`a-	2gny\	gl`a-	2b/	gl`a-	1.r	.
.	.	.	.	2cc\	-mo-	2ee\	-mo-	.	.
.	.	4f\	-mo-	.	.	.	.	.	.
.	.	2g\	-ro-	2b\	-ro-	2.dd\	-ro-	.	.
=31-	=31-	=31-	=31-	=31-	=31-	=31-	=31-	=31-	=31-
!	!	!	!	!	!	!	!	!LO:N:vis=0	!
.	.	2d\	-ſi	1a	-ſi	.	.	0.r	.
.	.	.	.	.	.	4cc\	-ſi	.	.
.	.	1e	bal-	.	.	1b	bal-	.	.
.	.	.	.	2g#X\	bal-	.	.	.	.
*	*	*Xcol	*	*Xcol	*	*Xcol	*	*	*
=32-	=32-	=32-	=32-	=32-	=32-	=32-	=32-	=32-	=32-
!LO:N:vis=1	!	!	!	!	!	!	!	!	!
1.r	.	1.A	-li	1.a	-li	1.a	-li	.	.
*	*	*	*	*	*	*custos:dd	*	*custos:d	*
!	!	!	!	!	!	!LO:LB:g=original	!	!LO:LB:g=original	!
=33-	=33-	=33-	=33-	=33-	=33-	=33-	=33-	=33-	=33-
*col	*	*col	*	*col	*	*col	*	*col	*
2D/	Al	2f\	Al	2a\	Al	2dd\	Al	2d\	Al
2D/	dol-	2f\	dol-	2a\	dol-	2dd\	dol-	2d\	dol-
2A\	-ce	2e\	-ce	2a\	-ce	2cc#X\	-ce	2e\	-ce
=34-	=34-	=34-	=34-	=34-	=34-	=34-	=34-	=34-	=34-
1D	ſuon	1d	ſuon	1a	ſuon	1dd	ſuon	1f	ſuon
2D/	de	2A/	de	2a\	de	2ff\	de	2d\	de
*custos:A	*	*	*	*	*	*	*	*	*
!LO:LB:g=original	!	!	!	!	!	!	!	!	!
=35-	=35-	=35-	=35-	=35-	=35-	=35-	=35-	=35-	=35-
2.A\	gl`a-	2.c/	gl`a-	2a\	gl`a-	2.ee\	gl`a-	2e\	gl`a-
.	.	.	.	2a\	-mo-	.	.	2e\	-mo-
4Bny\	-mo-	4d\	-mo-	.	.	4dd\	-mo-	.	.
2c\	-ro-	2e\	-ro-	2gny\	-ro-	2ccny\	-ro-	2e\	-ro-
=36-	=36-	=36-	=36-	=36-	=36-	=36-	=36-	=36-	=36-
2C/	-ſi	2c/	-ſi	2e/	-ſi	2ee\	-ſi	2gny\	-ſi
1D	bal-	1A	bal-	1a	bal-	1dd	bal-	1f	bal-
*Xcol	*	*Xcol	*	*Xcol	*	*Xcol	*	*Xcol	*
=37-	=37-	=37-	=37-	=37-	=37-	=37-	=37-	=37-	=37-
!LO:N:vis=00	!	!LO:N:vis=00	!	!LO:N:vis=00	!	!LO:N:vis=00	!	!LO:N:vis=00	!
0.A	-li.	0.A	-li.	0.a	-li.	0.cc#X	-li.	0.e	-li.
==	==	==	==	==	==	==	==	==	==
*-	*-	*-	*-	*-	*-	*-	*-	*-	*-
!!!system-decoration: [(s1,s2,s3,s4,s5)]
!!!ENC: Filip Voros
!!!END: 2022-07-07
!!!ENC: Natalia Wrzos
!!!END: 2022-07-29
